packages/core/src/svgs/tokens/mono/METFI.svg

<svg width="24" height="24" viewBox="0 0 24 24" fill="none" xmlns="http://www.w3.org/2000/svg">
<path d="M12 4.94109C7.48234 4.94109 3.7647 8.61168 3.7647 12.7881C3.76942 12.9137 3.74896 13.0389 3.70451 13.1564C3.66007 13.274 3.59254 13.3813 3.50592 13.4723C3.4193 13.5633 3.31534 13.6361 3.20016 13.6863C3.08498 13.7365 2.96092 13.7632 2.83529 13.7647C2.30587 13.7647 2 13.3293 2 12.7881C2 7.42344 6.52941 3.17639 12 3.17639C17.4706 3.17639 22 7.42344 22 12.7881C22 13.3293 21.6941 13.7647 21.1647 13.7647C21.0391 13.7632 20.915 13.7365 20.7998 13.6863C20.6847 13.6361 20.5806 13.5633 20.494 13.4723C20.4074 13.3813 20.3399 13.274 20.2954 13.1564C20.251 13.0389 20.2305 12.9137 20.2353 12.7881C20.2353 8.61168 16.5176 4.94109 12 4.94109Z" fill="white"/>
<path d="M16.7061 11.6883V19.7118C16.7061 20.3295 16.1651 20.8236 15.5297 20.8236C14.8944 20.8236 14.3533 20.3295 14.3533 19.7118V12.5883C14.3533 12.253 14.112 12 13.765 12C13.4179 12 13.1768 12.253 13.1768 12.5883V16.1825C13.1768 16.8001 12.5061 17.2942 12.0004 17.2942C11.4944 17.2942 10.8238 16.7648 10.8238 16.1589V12.5707C10.8238 12.2413 10.5826 12 10.2357 12C9.88855 12 9.64739 12.2413 9.64739 12.5765V19.7766C9.64739 20.3943 9.1062 20.8236 8.4709 20.8236C7.8356 20.8236 7.29443 20.3295 7.29443 19.7118V11.6531C7.29443 9.57068 9.40033 7.88245 12.0004 7.88245C14.218 7.88245 16.7297 9.31773 16.7061 11.6883Z" fill="white"/>
</svg>

<svg xmlns="http://www.w3.org/2000/svg" width="24" height="24" fill="none" viewBox="0 0 24 24">
    <path fill="#fff" d="M12 4.941c-4.518 0-8.235 3.67-8.235 7.847a.94.94 0 0 1-.93.977c-.53 0-.835-.436-.835-.977 0-5.365 4.53-9.612 10-9.612s10 4.247 10 9.612c0 .541-.306.977-.835.977a.94.94 0 0 1-.93-.977c0-4.176-3.717-7.847-8.235-7.847"/>
    <path fill="#fff" d="M16.706 11.688v8.024c0 .617-.54 1.112-1.176 1.112s-1.177-.495-1.177-1.112v-7.124a.57.57 0 0 0-.588-.588.57.57 0 0 0-.588.588v3.595c0 .617-.67 1.111-1.177 1.111-.506 0-1.176-.53-1.176-1.135V12.57c0-.33-.241-.571-.588-.571s-.589.241-.589.576v7.2c0 .618-.54 1.048-1.176 1.048s-1.177-.495-1.177-1.112v-8.059c0-2.082 2.106-3.77 4.706-3.77 2.218 0 4.73 1.435 4.706 3.805"/>
</svg>
